X: 1
T: Minor B
R: Slip Jig
M: 9/8
L: 1/8
K: Bmin
|: f2B BAB g2e | f2B B2d cBA | f2B BAB g3 | efg aed cBA :|
|: d2f fef fef | d2f fef ecA | d2f fef fef | efg aed cBA :|
